svg/logo/threads_line.svg

<?xml version="1.0" encoding="UTF-8"?>
<svg width="24px" height="24px" viewBox="0 0 24 24" version="1.1" xmlns="http://www.w3.org/2000/svg" xmlns:xlink="http://www.w3.org/1999/xlink">
    <title>threads_line</title>
    <g id="Icon" stroke="none" stroke-width="1" fill="none" fill-rule="evenodd">
        <g id="Logo" transform="translate(-96.000000, -288.000000)">
            <g id="threads_line" transform="translate(96.000000, 288.000000)">
                <path d="M24,0 L24,24 L0,24 L0,0 L24,0 Z M12.5935,23.2578 L12.5819,23.2595 L12.5109,23.295 L12.4919,23.2987 L12.4767,23.295 L12.4057,23.2595 C12.3958,23.2564 12.387,23.259 12.3821,23.2649 L12.378,23.2758 L12.3609,23.7031 L12.3659,23.7235 L12.3769,23.7357 L12.4805,23.8097 L12.4953,23.8136 L12.5071,23.8097 L12.6107,23.7357 L12.6233,23.7197 L12.6267,23.7031 L12.6096,23.2758 C12.6076,23.2657 12.601,23.2593 12.5935,23.2578 Z M12.8584,23.1453 L12.8445,23.1473 L12.6598,23.2397 L12.6499,23.2499 L12.6472,23.2611 L12.6651,23.6906 L12.6699,23.7034 L12.6784,23.7105 L12.8793,23.8032 C12.8914,23.8069 12.9022,23.803 12.9078,23.7952 L12.9118,23.7812 L12.8777,23.1665 C12.8753,23.1546 12.8674,23.147 12.8584,23.1453 Z M12.143,23.1473 C12.1332,23.1424 12.1222,23.1453 12.1156,23.1526 L12.1099,23.1665 L12.0758,23.7812 C12.0751,23.7927 12.0828,23.8019 12.0926,23.8046 L12.1083,23.8032 L12.3092,23.7105 L12.3186,23.7024 L12.3225,23.6906 L12.3404,23.2611 L12.3372,23.2485 L12.3278,23.2397 L12.143,23.1473 Z" id="MingCute" fill-rule="nonzero"></path>
                <path d="M5.45086,4.62262 C6.99626,2.97408 9.24002,2 12.0164,2 C16.5815,2 19.6078,4.63129 20.5651,8.27711 C20.7054,8.81129 20.386,9.35803 19.8519,9.4983 C19.3177,9.63857 18.7709,9.31924 18.6307,8.78506 C17.9051,6.02176 15.676,4 12.0164,4 C9.7302,4 8.03646,4.7888 6.90998,5.99045 C5.77393,7.20232 5.14136,8.91344 5.14136,10.875 L5.14136,13.125 C5.14136,15.0866 5.77393,16.7977 6.90998,18.0095 C8.03646,19.2112 9.7302,20 12.0164,20 C13.6705,20 14.9838,19.6161 15.9919,18.9952 C17.0074,18.3697 17.6121,17.5414 17.7819,16.5898 C17.9774,15.4938 17.7369,14.7423 17.3243,14.1987 C17.1126,13.9196 16.8372,13.6721 16.5096,13.458 C16.3755,14.2066 16.1344,14.9135 15.7697,15.4677 C14.4278,17.5066 11.8617,17.6824 10.1691,17.0069 C9.25416,16.6417 8.46879,15.6434 8.22484,14.5719 C8.09525,14.0026 8.10388,13.3585 8.36644,12.7285 C8.63124,12.0931 9.12153,11.5511 9.82088,11.1386 C10.5134,10.7302 11.5401,10.542 12.5596,10.5142 C13.1745,10.4974 13.8396,10.5375 14.5094,10.6474 C14.3702,9.99727 14.1335,9.51166 13.8664,9.2632 C13.3818,8.8123 12.5796,8.49569 11.7767,8.50139 C10.9994,8.5069 10.3404,8.80591 9.94639,9.43625 C9.65368,9.90459 9.03673,10.047 8.56839,9.75425 C8.10006,9.46154 7.95768,8.84459 8.25039,8.37625 C9.0869,7.03784 10.4661,6.51063 11.7626,6.50144 C13.0335,6.49242 14.3407,6.97261 15.2288,7.79898 C16.1271,8.63477 16.5126,10.0059 16.6125,11.2529 C17.4872,11.6341 18.3131,12.1932 18.9175,12.9896 C19.699,14.0194 20.0349,15.3484 19.7508,16.941 C19.4611,18.5651 18.4361,19.8386 17.0408,20.698 C15.6733,21.5404 13.9855,22 12.0164,22 C9.24002,22 6.99626,21.0259 5.45086,19.3774 C3.91503,17.7391 3.14136,15.5127 3.14136,13.125 L3.14136,10.875 C3.14136,8.48732 3.91503,6.26094 5.45086,4.62262 Z M14.5995,12.7002 C13.9327,12.5539 13.2434,12.4963 12.6142,12.5135 C11.7229,12.5378 11.0981,12.7073 10.8368,12.8614 C10.4528,13.0879 10.2871,13.3189 10.2125,13.4979 C10.1357,13.6822 10.1216,13.8934 10.1749,14.1279 C10.2969,14.6637 10.7004,15.0655 10.9105,15.1494 C12.0365,15.5988 13.4457,15.3609 14.099,14.3682 C14.3343,14.0107 14.5207,13.4099 14.5995,12.7002 Z" id="形状" fill="#09244B"></path>
            </g>
        </g>
    </g>
</svg>

<svg xmlns="http://www.w3.org/2000/svg" width="24" height="24"><g fill="none" fill-rule="evenodd"><path d="M24 0v24H0V0h24ZM12.594 23.258l-.012.002-.071.035-.02.004-.014-.004-.071-.036c-.01-.003-.019 0-.024.006l-.004.01-.017.428.005.02.01.013.104.074.015.004.012-.004.104-.074.012-.016.004-.017-.017-.427c-.002-.01-.009-.017-.016-.018Zm.264-.113-.014.002-.184.093-.01.01-.003.011.018.43.005.012.008.008.201.092c.012.004.023 0 .029-.008l.004-.014-.034-.614c-.003-.012-.01-.02-.02-.022Zm-.715.002a.023.023 0 0 0-.027.006l-.006.014-.034.614c0 .012.007.02.017.024l.015-.002.201-.093.01-.008.003-.011.018-.43-.003-.012-.01-.01-.184-.092Z"/><path fill="#09244B" d="M5.45 4.623C6.997 2.974 9.24 2 12.017 2c4.565 0 7.592 2.631 8.55 6.277a1 1 0 0 1-1.935.508C17.905 6.022 15.676 4 12.016 4c-2.286 0-3.98.789-5.106 1.99-1.136 1.212-1.769 2.923-1.769 4.885v2.25c0 1.962.633 3.673 1.769 4.884C8.036 19.212 9.73 20 12.016 20c1.655 0 2.968-.384 3.976-1.005 1.015-.625 1.62-1.454 1.79-2.405.195-1.096-.045-1.848-.458-2.391a3.227 3.227 0 0 0-.814-.741c-.135.749-.376 1.456-.74 2.01-1.342 2.039-3.908 2.214-5.6 1.539-.916-.365-1.701-1.364-1.945-2.435a3.018 3.018 0 0 1 .141-1.843c.265-.636.756-1.178 1.455-1.59.692-.409 1.72-.597 2.739-.625.614-.017 1.28.024 1.95.133-.14-.65-.377-1.135-.644-1.384-.484-.45-1.286-.767-2.09-.762-.777.006-1.436.305-1.83.935a1 1 0 1 1-1.696-1.06c.837-1.338 2.216-1.865 3.513-1.875 1.27-.009 2.578.472 3.466 1.298.898.836 1.284 2.207 1.384 3.454.874.381 1.7.94 2.305 1.737.781 1.03 1.117 2.358.833 3.951-.29 1.624-1.315 2.898-2.71 3.757C15.673 21.54 13.985 22 12.016 22c-2.776 0-5.02-.974-6.565-2.623-1.536-1.638-2.31-3.864-2.31-6.252v-2.25c0-2.388.774-4.614 2.31-6.252ZM14.6 12.7a8.349 8.349 0 0 0-1.986-.186c-.891.024-1.516.193-1.777.347-.384.227-.55.458-.624.637-.077.184-.091.395-.038.63.122.536.525.938.736 1.021 1.126.45 2.535.212 3.188-.78.235-.358.422-.96.5-1.669Z"/></g></svg>
